dist/assets/images/wp.svg

<svg width="31" height="30" viewBox="0 0 31 30" fill="none" xmlns="http://www.w3.org/2000/svg">
<g id="ri:whatsapp-fill">
<path id="Vector" d="M15.502 2.5C22.4057 2.5 28.002 8.09625 28.002 15C28.002 21.9037 22.4057 27.5 15.502 27.5C13.2929 27.5036 11.1228 26.919 9.21447 25.8063L3.00697 27.5L4.69697 21.29C3.58334 19.3811 2.99828 17.21 3.00197 15C3.00197 8.09625 8.59822 2.5 15.502 2.5ZM11.242 9.125L10.992 9.135C10.8301 9.14486 10.6719 9.18738 10.527 9.26C10.3914 9.33679 10.2676 9.43278 10.1595 9.545C10.0095 9.68625 9.92447 9.80875 9.83322 9.9275C9.37087 10.5286 9.12194 11.2666 9.12572 12.025C9.12822 12.6375 9.28822 13.2338 9.53822 13.7913C10.0495 14.9187 10.8907 16.1125 12.0007 17.2188C12.2682 17.485 12.5307 17.7525 12.8132 18.0013C14.1925 19.2156 15.836 20.0913 17.6132 20.5588L18.3232 20.6675C18.5545 20.68 18.7857 20.6625 19.0182 20.6512C19.3823 20.6325 19.7377 20.5339 20.0595 20.3625C20.2232 20.2782 20.3829 20.1864 20.5382 20.0875C20.5382 20.0875 20.592 20.0525 20.6945 19.975C20.8632 19.85 20.967 19.7612 21.107 19.615C21.2107 19.5075 21.3007 19.3813 21.3695 19.2375C21.467 19.0338 21.5645 18.645 21.6045 18.3212C21.6345 18.0737 21.6257 17.9388 21.622 17.855C21.617 17.7213 21.5057 17.5825 21.3845 17.5238L20.657 17.1975C20.657 17.1975 19.5695 16.7238 18.9045 16.4213C18.8349 16.3909 18.7603 16.3735 18.6845 16.37C18.5989 16.3612 18.5125 16.3708 18.431 16.3982C18.3495 16.4256 18.2748 16.4701 18.212 16.5287C18.2057 16.5262 18.122 16.5975 17.2182 17.6925C17.1663 17.7622 17.0949 17.8149 17.013 17.8438C16.9311 17.8728 16.8424 17.8767 16.7582 17.855C16.6768 17.8332 16.597 17.8056 16.5195 17.7725C16.3645 17.7075 16.3107 17.6825 16.2045 17.6375C15.4871 17.3244 14.8228 16.9014 14.2357 16.3838C14.0782 16.2463 13.932 16.0962 13.782 15.9513C13.2902 15.4803 12.8616 14.9475 12.507 14.3663L12.4332 14.2475C12.3802 14.1677 12.3374 14.0816 12.3057 13.9913C12.2582 13.8075 12.382 13.66 12.382 13.66C12.382 13.66 12.6857 13.3275 12.827 13.1475C12.9645 12.9725 13.0807 12.8025 13.1557 12.6813C13.3032 12.4438 13.3495 12.2 13.272 12.0113C12.922 11.1562 12.5595 10.305 12.187 9.46C12.1132 9.2925 11.8945 9.1725 11.6957 9.14875C11.6282 9.14125 11.5607 9.13375 11.4932 9.12875C11.3254 9.12041 11.1571 9.12208 10.9895 9.13375L11.2407 9.12375L11.242 9.125Z" fill="white"/>
</g>
</svg>

<svg width="31" height="30" fill="none" xmlns="http://www.w3.org/2000/svg"><path d="M15.502 2.5c6.904 0 12.5 5.596 12.5 12.5s-5.596 12.5-12.5 12.5c-2.21.004-4.38-.581-6.288-1.694L3.007 27.5l1.69-6.21A12.441 12.441 0 0 1 3.002 15c0-6.904 5.596-12.5 12.5-12.5Zm-4.26 6.625-.25.01a1.2 1.2 0 0 0-.465.125c-.136.077-.26.173-.367.285-.15.141-.236.264-.327.383a3.412 3.412 0 0 0-.707 2.097c.002.612.162 1.209.412 1.766.511 1.128 1.353 2.322 2.463 3.428.267.266.53.534.812.782a11.811 11.811 0 0 0 4.8 2.558l.71.108c.232.013.463-.005.695-.016.364-.018.72-.117 1.041-.288a6.34 6.34 0 0 0 .48-.276s.053-.035.155-.112c.17-.125.273-.214.413-.36.104-.107.194-.234.262-.377.098-.204.195-.593.236-.917.03-.247.02-.382.017-.466-.005-.134-.116-.273-.238-.331l-.727-.326s-1.087-.474-1.753-.777a.621.621 0 0 0-.22-.051.602.602 0 0 0-.472.159c-.006-.003-.09.069-.994 1.163a.437.437 0 0 1-.46.163 1.78 1.78 0 0 1-.238-.082l-.316-.136a7.535 7.535 0 0 1-1.968-1.253c-.158-.138-.304-.288-.454-.433a7.87 7.87 0 0 1-1.275-1.585l-.074-.118a1.154 1.154 0 0 1-.127-.257c-.048-.184.076-.331.076-.331s.304-.332.445-.512c.137-.175.254-.345.329-.467.147-.237.194-.481.116-.67a103.91 103.91 0 0 0-1.085-2.551c-.074-.168-.292-.288-.491-.311a4.646 4.646 0 0 0-.203-.02 4.23 4.23 0 0 0-.504.005l.252-.01.001.001Z" fill="#fff"/></svg>
